src/icons/outlook.svg

<?xml version="1.0" encoding="UTF-8"?>
<svg width="512px" height="512px" viewBox="0 0 512 512" version="1.1" xmlns="http://www.w3.org/2000/svg" xmlns:xlink="http://www.w3.org/1999/xlink">
    <!-- Generator: Sketch 62 (91390) - https://sketch.com -->
    <title>outlook</title>
    <desc>Created with Sketch.</desc>
    <g id="outlook" stroke="none" stroke-width="1" fill="none" fill-rule="evenodd">
        <path d="M298.8,102.8 L298.8,170 L322.3,184.8 C322.9,185 324.2,185 324.8,184.8 L425.9,116.6 C425.9,108.5 418.4,102.8 414.1,102.8 L298.8,102.8 Z" id="Path" fill="#000000" fill-rule="nonzero"></path>
        <path d="M298.8,229.4 L320.3,244.2 C323.3,246.4 327,244.2 327,244.2 C323.4,246.4 426.1,178.2 426.1,178.2 L426.1,301.7 C426.1,315.2 417.5,320.8 407.8,320.8 L298.7,320.8 L298.8,229.4 Z M187.8,198.4 C180.5,198.4 174.6,201.8 170.4,208.7 C166.2,215.6 163.9,224.6 163.9,235.9 C163.9,247.4 166,256.4 170.4,263.1 C174.6,269.8 180.4,273.1 187.3,273.1 C194.5,273.1 200.2,269.8 204.4,263.4 C208.6,256.9 210.8,247.9 210.8,236.4 C210.8,224.4 208.8,215.1 204.6,208.4 C200.4,201.8 194.8,198.4 187.8,198.4 Z" id="Shape" fill="#000000" fill-rule="nonzero"></path>
        <path d="M86,116.45 L86,379.35 L286.1,421.35 L286.1,77.65 L86,116.45 Z M219.9,292.35 C211.4,303.55 200.5,309.05 186.9,309.05 C173.6,309.05 162.9,303.65 154.5,292.95 C146.2,282.15 142,268.05 142,250.75 C142,232.45 146.2,217.75 154.7,206.35 C163.2,195.05 174.5,189.35 188.4,189.35 C201.6,189.35 212.3,194.75 220.5,205.65 C228.7,216.45 232.7,230.75 232.7,248.45 C232.6,266.55 228.4,281.25 219.9,292.35 L219.9,292.35 Z" id="Shape" fill="#000000" fill-rule="nonzero"></path>
    </g>
</svg>

<svg xmlns="http://www.w3.org/2000/svg" width="512" height="512" viewBox="0 0 512 512">
    <path d="M298.8 102.8V170l23.5 14.8c.6.2 1.9.2 2.5 0l101.1-68.2c0-8.1-7.5-13.8-11.8-13.8H298.8zm0 126.6l21.5 14.8c3 2.2 6.7 0 6.7 0-3.6 2.2 99.1-66 99.1-66v123.5c0 13.5-8.6 19.1-18.3 19.1H298.7l.1-91.4zm-111-31c-7.3 0-13.2 3.4-17.4 10.3-4.2 6.9-6.5 15.9-6.5 27.2 0 11.5 2.1 20.5 6.5 27.2 4.2 6.7 10 10 16.9 10 7.2 0 12.9-3.3 17.1-9.7 4.2-6.5 6.4-15.5 6.4-27 0-12-2-21.3-6.2-28-4.2-6.6-9.8-10-16.8-10z"/>
    <path d="M86 116.45v262.9l200.1 42V77.65L86 116.45zm133.9 175.9c-8.5 11.2-19.4 16.7-33 16.7-13.3 0-24-5.4-32.4-16.1-8.3-10.8-12.5-24.9-12.5-42.2 0-18.3 4.2-33 12.7-44.4 8.5-11.3 19.8-17 33.7-17 13.2 0 23.9 5.4 32.1 16.3 8.2 10.8 12.2 25.1 12.2 42.8-.1 18.1-4.3 32.8-12.8 43.9z"/>
</svg>
